!!!!SEGMENT: pl-wtm--r-1762--006_stefani-jozef--hans-jurga-chor-za-scena.krn
!!!cenid: 18xx:1916
!!!COM: Stefani, Józef
!!!COM-rismid: pe30024097
!!!CDT: 1800/04/16-1876/03/19
!!!CNT: Polish
!!!OPR: Hans Jurga
!!!OTL: Chór za sceną
!!!OMV: 006
!!!PDT:
!!!AGN: Secular
!!!SMS-siglum: PL-Wtm
!!!SMS-shelfmark: R 1762
!!!SMS-shelfwork: 001-006 M
!!!SMS-variant:
!!!SMS-altvar:
!!!NIFC-rismid: 1001131405
!!!URL-scan: http://repozytorium.nifc.pl/skany/pl-wtm-nut--r1762
!!!ONB-nifc: UWAGA: No. 6., od skanu 0024
**kern	**dynam	**kern	**dynam	**kern	**text	**kern	**text	**kern	**kern	**dynam	**kern	**kern	**dynam	**kern	**kern	**dynam	**kern	**dynam	**kern	**kern	**kern	**kern	**kern	**kern	**dynam	**kern	**kern	**kern	**dynam	**kern	**dynam
*part21	*part21	*part20	*part20	*part19	*part19	*part18	*part18	*part17	*part16	*part16	*part15	*part14	*part14	*part13	*part12	*part12	*part11	*part11	*part10	*part9	*part8	*part7	*part6	*part5	*part5	*part4	*part3	*part2	*part2	*part1	*part1
*staff21	*	*staff20	*	*staff19	*staff19	*staff18	*staff18	*staff17	*staff16	*	*staff15	*staff14	*	*staff13	*staff12	*	*staff11	*	*staff10	*staff9	*staff8	*staff7	*staff6	*staff5	*	*staff4	*staff3	*staff2	*	*staff1	*
*Icbass	*	*Icello	*	*Iempty	*	*Itenor	*	*Itenor	*Iviola	*	*Ivioln	*Ivioln	*	*IdrumS	*Itimpa	*	*Iempty	*	*Itromt	*Itromt	*Itromp	*Ifagot	*Icor	*Icor	*	*Iclars	*Ioboe	*Ipicco	*	*Iflt	*
*I"C:Baſsi	*	*I"Violoncelli	*	*I"Baſsi	*	*I"Tenori	*	*I"Tenori	*I"Viole	*	*I"Violini	*I"Violini	*	*I"P. Tambour	*I"Timpani Es. b.	*	*I"Banda	*	*I"Tromboni	*I"Tromboni	*I"Trombe in C	*I"Fagotti	*I"Corni in B.	*I"Corni in Es	*	*I"Clarinetti in B	*I"Oboe	*I"F Picolo	*	*I"Flauto	*
*I'C:Baſsi	*	*I'V-c.	*	*I'B.	*	*I'T.	*	*I'T.	*I'Viole	*	*I'Violini	*I'Violini	*	*I'P. Tambour	*I'Timpani Es. b.	*	*I'Banda	*	*I'Tromboni	*I'Tromboni	*I'Trombe in C	*I'Fag.	*I'Corni in B.	*I'Corni in Es	*	*I'Clarinetti in B	*I'Ob.	*I'F Picolo	*	*I'Fl.	*
*clefF4	*	*clefF4	*	*clefF4	*	*clefC4	*	*clefC4	*clefC3	*	*clefG2	*clefG2	*	*clefF4	*clefF4	*	*clefF4	*	*clefF4	*clefC4	*clefG2	*clefF4	*clefG2	*clefG2	*	*clefG2	*clefG2	*clefG2	*	*clefG2	*
*ITrd0c0	*	*	*	*	*	*	*	*	*	*	*	*	*	*ITrd0c0	*	*	*	*	*	*	*	*	*ITrd1c2	*ITrd5c9	*	*ITrd1c2	*	*ITrd0c0	*	*	*
*k[b-e-a-]	*	*k[b-e-a-]	*	*k[b-e-a-]	*	*k[b-e-a-]	*	*k[b-e-a-]	*k[b-e-a-]	*	*k[b-e-a-]	*k[b-e-a-]	*	*k[b-e-a-]	*k[b-e-a-]	*	*k[b-e-a-]	*	*k[b-e-a-]	*k[b-e-a-]	*k[b-e-a-]	*k[b-e-a-]	*k[b-e-a-]	*k[b-e-a-]	*	*k[b-e-a-]	*k[b-e-a-]	*k[b-e-a-]	*	*k[b-e-a-]	*
*E-:	*	*E-:	*	*E-:	*	*E-:	*	*E-:	*E-:	*	*E-:	*E-:	*	*E-:	*E-:	*	*E-:	*	*E-:	*E-:	*E-:	*E-:	*E-:	*E-:	*	*E-:	*E-:	*E-:	*	*E-:	*
*M2/4	*	*M2/4	*	*M2/4	*	*M2/4	*	*M2/4	*M2/4	*	*M2/4	*M2/4	*	*M2/4	*M2/4	*	*M2/4	*	*M2/4	*M2/4	*M2/4	*M2/4	*M2/4	*M2/4	*	*M2/4	*M2/4	*M2/4	*	*M2/4	*
!	!	!	!	!	!	!	!	!LO:TX:a:t=Nº6.\n /Chór za sceną&colon;/	!	!	!	!	!	!	!	!	!	!	!	!	!	!	!	!	!	!	!	!	!	!	!
!	!	!	!	!	!	!	!	!LO:TX:a:t=Co Karolowi do łba strzeliło	!	!	!	!	!	!	!	!	!	!	!	!	!	!	!	!	!	!	!	!	!	!	!
!	!	!	!	!	!	!	!	!LO:TX:t=P:problem:większość dolnych caud z prawej strony	!	!	!	!	!	!	!	!	!	!	!	!	!	!	!LO:TX:t=P:problem:brak znaków przykluczowych	!	!	!	!	!	!	!	!
8ryy	.	8ryyyy	.	8BB-/	Że-	8B-\	.	8B-\	8ryy	.	8ryy	8ryy	.	8ryy	8ryy	.	8ryy	.	8ryy	8ryy	8ryy	8ryy	8ryy	8ryy	.	8ryy	8ryy	8ryy	.	8ryy	.
=1	=1	=1	=1	=1	=1	=1	=1	=1	=1	=1	=1	=1	=1	=1	=1	=1	=1	=1	=1	=1	=1	=1	=1	=1	=1	=1	=1	=1	=1	=1	=1
2ryy	.	2ryyyy	.	4E-\	-gna-	4G/	.	4e-\	2ryy	.	2ryy	2ryy	.	2ryy	2ryy	.	2ryy	.	2ryy	2ryy	2ryy	2ryy	2ryy	2ryy	.	2ryy	2ryy	2ryy	.	2ryy	.
.	.	.	.	4D\	-my	4B-\	.	4f\	.	.	.	.	.	.	.	.	.	.	.	.	.	.	.	.	.	.	.	.	.	.	.
=2	=2	=2	=2	=2	=2	=2	=2	=2	=2	=2	=2	=2	=2	=2	=2	=2	=2	=2	=2	=2	=2	=2	=2	=2	=2	=2	=2	=2	=2	=2	=2
2ryy	.	2ryyyy	.	4E-\	was	4B-\	.	4g\	2ryy	.	2ryy	2ryy	.	2ryy	2ryy	.	2ryy	.	2ryy	2ryy	2ryy	2ryy	2ryy	2ryy	.	2ryy	2ryy	2ryy	.	2ryy	.
.	.	.	.	8r	.	8r	.	8r	.	.	.	.	.	.	.	.	.	.	.	.	.	.	.	.	.	.	.	.	.	.	.
.	.	.	.	8E-\	że-	8B-\	.	8g\	.	.	.	.	.	.	.	.	.	.	.	.	.	.	.	.	.	.	.	.	.	.	.
=3	=3	=3	=3	=3	=3	=3	=3	=3	=3	=3	=3	=3	=3	=3	=3	=3	=3	=3	=3	=3	=3	=3	=3	=3	=3	=3	=3	=3	=3	=3	=3
2ryy	.	2ryyyy	.	4BB-/	-gna-	(8.A-/L	.	(8.f\L	2ryy	.	2ryy	2ryy	.	2ryy	2ryy	.	2ryy	.	2ryy	2ryy	2ryy	2ryy	2ryy	2ryy	.	2ryy	2ryy	2ryy	.	2ryy	.
.	.	.	.	.	.	16G/Jk)	.	16en\Jk)	.	.	.	.	.	.	.	.	.	.	.	.	.	.	.	.	.	.	.	.	.	.	.
.	.	.	.	4BB-/	-my	(8A-/L	.	(8f\L	.	.	.	.	.	.	.	.	.	.	.	.	.	.	.	.	.	.	.	.	.	.	.
.	.	.	.	.	.	8B-/J)	.	8g\J)	.	.	.	.	.	.	.	.	.	.	.	.	.	.	.	.	.	.	.	.	.	.	.
=4	=4	=4	=4	=4	=4	=4	=4	=4	=4	=4	=4	=4	=4	=4	=4	=4	=4	=4	=4	=4	=4	=4	=4	=4	=4	=4	=4	=4	=4	=4	=4
2ryy	.	2ryyyy	.	4E-\	was	4G/	.	4e-\	2ryy	.	2ryy	2ryy	.	2ryy	2ryy	.	2ryy	.	2ryy	2ryy	2ryy	2ryy	2ryy	2ryy	.	2ryy	2ryy	2ryy	.	2ryy	.
.	.	.	.	8r	.	8r	.	8r	.	.	.	.	.	.	.	.	.	.	.	.	.	.	.	.	.	.	.	.	.	.	.
.	.	.	.	8B-\	Już	8B-\	.	8B-\	.	.	.	.	.	.	.	.	.	.	.	.	.	.	.	.	.	.	.	.	.	.	.
!!LO:LB:g=original
=5	=5	=5	=5	=5	=5	=5	=5	=5	=5	=5	=5	=5	=5	=5	=5	=5	=5	=5	=5	=5	=5	=5	=5	=5	=5	=5	=5	=5	=5	=5	=5
2ryy	.	2ryyyy	.	8.E-\	mo-	8.G/	.	8.e-\	2ryy	.	2ryy	2ryy	.	2ryy	2ryy	.	2ryy	.	2ryy	2ryy	2ryy	2ryy	2ryy	2ryy	.	2ryy	2ryy	2ryy	.	2ryy	.
.	.	.	.	16E-\	-że	16G/	.	16e-\	.	.	.	.	.	.	.	.	.	.	.	.	.	.	.	.	.	.	.	.	.	.	.
.	.	.	.	16D\	niez-	16B-\	.	16f\	.	.	.	.	.	.	.	.	.	.	.	.	.	.	.	.	.	.	.	.	.	.	.
.	.	.	.	16D\	-o-	16B-\	.	16en\	.	.	.	.	.	.	.	.	.	.	.	.	.	.	.	.	.	.	.	.	.	.	.
.	.	.	.	16D\	-ba-	16B-\	.	16f\	.	.	.	.	.	.	.	.	.	.	.	.	.	.	.	.	.	.	.	.	.	.	.
.	.	.	.	16D\	-czem	16B-\	.	16a-\	.	.	.	.	.	.	.	.	.	.	.	.	.	.	.	.	.	.	.	.	.	.	.
=6	=6	=6	=6	=6	=6	=6	=6	=6	=6	=6	=6	=6	=6	=6	=6	=6	=6	=6	=6	=6	=6	=6	=6	=6	=6	=6	=6	=6	=6	=6	=6
2ryy	.	2ryyyy	.	4E-\	się	4B-\	.	4g\	2ryy	.	2ryy	2ryy	.	2ryy	2ryy	.	2ryy	.	2ryy	2ryy	2ryy	2ryy	2ryy	2ryy	.	2ryy	2ryy	2ryy	.	2ryy	.
.	.	.	.	8r	.	8r	.	8r	.	.	.	.	.	.	.	.	.	.	.	.	.	.	.	.	.	.	.	.	.	.	.
.	.	.	.	8E-\	Nie	8e-\	.	8g\	.	.	.	.	.	.	.	.	.	.	.	.	.	.	.	.	.	.	.	.	.	.	.
=7	=7	=7	=7	=7	=7	=7	=7	=7	=7	=7	=7	=7	=7	=7	=7	=7	=7	=7	=7	=7	=7	=7	=7	=7	=7	=7	=7	=7	=7	=7	=7
2ryy	.	2ryyyy	.	16F\	ba-	16d\	.	16f\	2ryy	.	2ryy	2ryy	.	2ryy	2ryy	.	2ryy	.	2ryy	2ryy	2ryy	2ryy	2ryy	2ryy	.	2ryy	2ryy	2ryy	.	2ryy	.
.	.	.	.	16F\	-czmy	16d\	.	16f\	.	.	.	.	.	.	.	.	.	.	.	.	.	.	.	.	.	.	.	.	.	.	.
.	.	.	.	16F\	na	16c\	.	16e-\	.	.	.	.	.	.	.	.	.	.	.	.	.	.	.	.	.	.	.	.	.	.	.
.	.	.	.	16F\	ten	16B-\	.	16d\	.	.	.	.	.	.	.	.	.	.	.	.	.	.	.	.	.	.	.	.	.	.	.
.	.	.	.	8F\	Kró-	8B-\	.	8c\	.	.	.	.	.	.	.	.	.	.	.	.	.	.	.	.	.	.	.	.	.	.	.
.	.	.	.	8F\	-tki	8An\	.	8f\	.	.	.	.	.	.	.	.	.	.	.	.	.	.	.	.	.	.	.	.	.	.	.
=8	=8	=8	=8	=8	=8	=8	=8	=8	=8	=8	=8	=8	=8	=8	=8	=8	=8	=8	=8	=8	=8	=8	=8	=8	=8	=8	=8	=8	=8	=8	=8
2ryy	.	2ryyyy	.	4B-\	czas	4B-\	.	4B-\	2ryy	.	2ryy	2ryy	.	2ryy	2ryy	.	2ryy	.	2ryy	2ryy	2ryy	2ryy	2ryy	2ryy	.	2ryy	2ryy	2ryy	.	2ryy	.
.	.	.	.	8r	.	8r	.	8r	.	.	.	.	.	.	.	.	.	.	.	.	.	.	.	.	.	.	.	.	.	.	.
.	.	.	.	8BB-/	Spo-	8B-\	.	8B-\	.	.	.	.	.	.	.	.	.	.	.	.	.	.	.	.	.	.	.	.	.	.	.
!!LO:LB:g=original
=9	=9	=9	=9	=9	=9	=9	=9	=9	=9	=9	=9	=9	=9	=9	=9	=9	=9	=9	=9	=9	=9	=9	=9	=9	=9	=9	=9	=9	=9	=9	=9
2ryy	.	2ryyyy	.	8.BB-/	-tka-	8.f\	.	8.a-\	2ryy	.	2ryy	2ryy	.	2ryy	2ryy	.	2ryy	.	2ryy	2ryy	2ryy	2ryy	2ryy	2ryy	.	2ryy	2ryy	2ryy	.	2ryy	.
.	.	.	.	16BB-/	-my	16e-\	.	16g\	.	.	.	.	.	.	.	.	.	.	.	.	.	.	.	.	.	.	.	.	.	.	.
.	.	.	.	8BB-/	się	8d\	.	8f\	.	.	.	.	.	.	.	.	.	.	.	.	.	.	.	.	.	.	.	.	.	.	.
.	.	.	.	8BB-/	Wszak	8B-\	.	8B-\	.	.	.	.	.	.	.	.	.	.	.	.	.	.	.	.	.	.	.	.	.	.	.
=10	=10	=10	=10	=10	=10	=10	=10	=10	=10	=10	=10	=10	=10	=10	=10	=10	=10	=10	=10	=10	=10	=10	=10	=10	=10	=10	=10	=10	=10	=10	=10
2ryy	.	2ryyyy	.	8.E-\	wie-	8.G/	.	8.e-\	2ryy	.	2ryy	2ryy	.	2ryy	2ryy	.	2ryy	.	2ryy	2ryy	2ryy	2ryy	2ryy	2ryy	.	2ryy	2ryy	2ryy	.	2ryy	.
.	.	.	.	16D\	-cie	16B-\	.	16f\	.	.	.	.	.	.	.	.	.	.	.	.	.	.	.	.	.	.	.	.	.	.	.
.	.	.	.	8E-\	gdzie	8B-\	.	8g\	.	.	.	.	.	.	.	.	.	.	.	.	.	.	.	.	.	.	.	.	.	.	.
.	.	.	.	8AA-/	J	(16c\LL	.	8f\	.	.	.	.	.	.	.	.	.	.	.	.	.	.	.	.	.	.	.	.	.	.	.
.	.	.	.	.	.	16A-\JJ)	.	.	.	.	.	.	.	.	.	.	.	.	.	.	.	.	.	.	.	.	.	.	.	.	.
=11	=11	=11	=11	=11	=11	=11	=11	=11	=11	=11	=11	=11	=11	=11	=11	=11	=11	=11	=11	=11	=11	=11	=11	=11	=11	=11	=11	=11	=11	=11	=11
2ryy	.	2ryyyy	.	8.BB-/	Bóg	8.G/	.	8.e-\	2ryy	.	2ryy	2ryy	.	2ryy	2ryy	.	2ryy	.	2ryy	2ryy	2ryy	2ryy	2ryy	2ryy	.	2ryy	2ryy	2ryy	.	2ryy	.
.	.	.	.	16BB-/	po-	16G/	.	16B-\	.	.	.	.	.	.	.	.	.	.	.	.	.	.	.	.	.	.	.	.	.	.	.
.	.	.	.	8AA-/	-cie-	8A-/	.	8c\	.	.	.	.	.	.	.	.	.	.	.	.	.	.	.	.	.	.	.	.	.	.	.
.	.	.	.	8BB-/	-szy	8F/	.	8d\	.	.	.	.	.	.	.	.	.	.	.	.	.	.	.	.	.	.	.	.	.	.	.
=12	=12	=12	=12	=12	=12	=12	=12	=12	=12	=12	=12	=12	=12	=12	=12	=12	=12	=12	=12	=12	=12	=12	=12	=12	=12	=12	=12	=12	=12	=12	=12
2ryy	.	2ryyyy	.	4E-\	nas	4G/	.	4e-\	2ryy	.	2ryy	2ryy	.	2ryy	2ryy	.	2ryy	.	2ryy	2ryy	2ryy	2ryy	2ryy	2ryy	.	2ryy	2ryy	2ryy	.	2ryy	.
.	.	.	.	8r	.	4r	.	4r	.	.	.	.	.	.	.	.	.	.	.	.	.	.	.	.	.	.	.	.	.	.	.
.	.	.	.	8BB-/	J	.	.	.	.	.	.	.	.	.	.	.	.	.	.	.	.	.	.	.	.	.	.	.	.	.	.
=13	=13	=13	=13	=13	=13	=13	=13	=13	=13	=13	=13	=13	=13	=13	=13	=13	=13	=13	=13	=13	=13	=13	=13	=13	=13	=13	=13	=13	=13	=13	=13
2ryy	.	2ryyyy	.	[4BB-/	Bóg	4r	.	4r	2ryy	.	2ryy	2ryy	.	2ryy	2ryy	.	2ryy	.	2ryy	2ryy	2ryy	2ryy	2ryy	2ryy	.	2ryy	2ryy	2ryy	.	2ryy	.
.	.	.	.	16BB-/]	.	16r	.	16r	.	.	.	.	.	.	.	.	.	.	.	.	.	.	.	.	.	.	.	.	.	.	.
.	.	.	.	16BB-/	po-	16A-/	.	16f\	.	.	.	.	.	.	.	.	.	.	.	.	.	.	.	.	.	.	.	.	.	.	.
.	.	.	.	16BB-/	-cie-	16G/	.	16e-\	.	.	.	.	.	.	.	.	.	.	.	.	.	.	.	.	.	.	.	.	.	.	.
.	.	.	.	16BB-/	-szy	16F/	.	16d\	.	.	.	.	.	.	.	.	.	.	.	.	.	.	.	.	.	.	.	.	.	.	.
!!LO:LB:g=original
=14	=14	=14	=14	=14	=14	=14	=14	=14	=14	=14	=14	=14	=14	=14	=14	=14	=14	=14	=14	=14	=14	=14	=14	=14	=14	=14	=14	=14	=14	=14	=14
2ryy	.	2ryyyy	.	4E-\	nas	4G/	.	4e-\	2ryy	.	2ryy	2ryy	.	2ryy	2ryy	.	2ryy	.	2ryy	2ryy	2ryy	2ryy	2ryy	2ryy	.	2ryy	2ryy	2ryy	.	2ryy	.
.	.	.	.	4r	.	(8.e-\L	I	4r	.	.	.	.	.	.	.	.	.	.	.	.	.	.	.	.	.	.	.	.	.	.	.
.	.	.	.	.	.	16G\Jk)	.	.	.	.	.	.	.	.	.	.	.	.	.	.	.	.	.	.	.	.	.	.	.	.	.
=15	=15	=15	=15	=15	=15	=15	=15	=15	=15	=15	=15	=15	=15	=15	=15	=15	=15	=15	=15	=15	=15	=15	=15	=15	=15	=15	=15	=15	=15	=15	=15
2ryy	.	2ryyyy	.	4r	.	[4B-\	Bóg	4r	2ryy	.	2ryy	2ryy	.	2ryy	2ryy	.	2ryy	.	2ryy	2ryy	2ryy	2ryy	2ryy	2ryy	.	2ryy	2ryy	2ryy	.	2ryy	.
.	.	.	.	16r	.	16B-\]	.	16r	.	.	.	.	.	.	.	.	.	.	.	.	.	.	.	.	.	.	.	.	.	.	.
.	.	.	.	16BB-/	po-	16B-\	po-	16B-\	.	.	.	.	.	.	.	.	.	.	.	.	.	.	.	.	.	.	.	.	.	.	.
.	.	.	.	16BB-/	-cie-	16B-\	-cie-	16g\	.	.	.	.	.	.	.	.	.	.	.	.	.	.	.	.	.	.	.	.	.	.	.
.	.	.	.	16BB-/	-szy	16A-\	-szy	16f\	.	.	.	.	.	.	.	.	.	.	.	.	.	.	.	.	.	.	.	.	.	.	.
=	=	=	=	=	=	=	=	=	=	=	=	=	=	=	=	=	=	=	=	=	=	=	=	=	=	=	=	=	=	=	=
4ryy	.	4ryyyy	.	4E-\	nas	4G/	nas	4e-\	4ryy	.	4ryy	4ryy	.	4ryy	4ryy	.	4ryy	.	4ryy	4ryy	4ryy	4ryy	4ryy	4ryy	.	4ryy	4ryy	4ryy	.	4ryy	.
!!LO:PB:g=original
=16||	=16||	=16||	=16||	=16||	=16||	=16||	=16||	=16||	=16||	=16||	=16||	=16||	=16||	=16||	=16||	=16||	=16||	=16||	=16||	=16||	=16||	=16||	=16||	=16||	=16||	=16||	=16||	=16||	=16||	=16||	=16||
*k[b-e-a-]	*	*k[b-e-a-]	*	*k[b-e-a-]	*	*k[b-e-a-]	*	*k[b-e-a-]	*k[b-e-a-]	*	*k[b-e-a-]	*k[b-e-a-]	*	*k[b-e-a-]	*k[b-e-a-]	*	*k[b-e-a-]	*	*k[b-e-a-]	*k[b-e-a-]	*k[b-e-a-]	*k[b-e-a-]	*k[b-e-a-]	*k[b-e-a-]	*	*k[b-e-a-]	*k[b-e-a-]	*k[b-e-a-]	*	*k[b-e-a-]	*
*M2/4	*	*M2/4	*	*M2/4	*	*M2/4	*	*M2/4	*M2/4	*	*M2/4	*M2/4	*	*M2/4	*M2/4	*	*M2/4	*	*M2/4	*M2/4	*M2/4	*M2/4	*M2/4	*M2/4	*	*M2/4	*M2/4	*M2/4	*	*M2/4	*
*	*	*	*	*	*	*	*	*	*	*	*	*	*	*	*	*	*	*	*	*	*	*clefC4	*	*	*	*	*	*	*	*	*
4r	.	4ryy	.	4r	.	4r	.	4r	4r	.	4r	4r	.	4r	4r	.	4r	.	4r	4r	4r	4B-\	4r	4r	.	4b-T\	4r	4r	.	4r	.
.	.	.	.	.	.	.	.	.	.	.	.	.	.	.	.	.	.	.	.	.	.	(<32qqAn/LLL	.	.	.	(<16qqa/LL	.	.	.	.	.
.	.	.	.	.	.	.	.	.	.	.	.	.	.	.	.	.	.	.	.	.	.	32qqB-/JJJ	.	.	.	16qqb-/JJ	.	.	.	.	.
=17	=17	=17	=17	=17	=17	=17	=17	=17	=17	=17	=17	=17	=17	=17	=17	=17	=17	=17	=17	=17	=17	=17	=17	=17	=17	=17	=17	=17	=17	=17	=17
*	*	*	*	*	*	*	*	*	*	*	*	*	*	*	*	*	*^	*	*	*	*	*	*^	*^	*	*	*	*	*	*	*
*	*	*	*	*	*	*	*	*	*	*	*	*	*	*	*	*	*	*	*	*	*	*	*	*	*2\right	*2\right	*	*	*	*	*	*	*	*
!	!LO:DY:rj	!	!LO:DY:rj	!	!	!	!	!	!	!	!	!	!	!	!	!	!	!	!	!	!	!	!	!	!	!	!	!LO:DY:rj	!	!	!	!	!	!
16BB-/	p	16BB-/yy	p	2ryy	.	2ryy	.	2ryy	16r	p	16r	16r	p	2r	2r	.	16G/	2r	.	2r	2r	2r	16.a-X\LL 16.f\)	2dd/	2b-\	2a-/	2f\	p	16.aa-X\LL 16.ff\)	2ryy	2ryy	.	2ryy	.
16r	.	16ryy	.	.	.	.	.	.	16f\ 16B-\	.	16d/	16a-/ 16B-/	.	.	.	.	16r	.	.	.	.	.	.	.	.	.	.	.	.	.	.	.	.	.
.	.	.	.	.	.	.	.	.	.	.	.	.	.	.	.	.	.	.	.	.	.	.	32g\K 32e-\	.	.	.	.	.	32gg\K 32ee-\	.	.	.	.	.
*rep	*	*rep	*	*	*	*	*	*	*rep	*	*rep	*rep	*	*	*	*	*rep	*	*	*	*	*	*	*	*	*	*	*	*	*	*	*	*	*
16BB-/	.	16BB-/yy	.	.	.	.	.	.	16r	.	16r	16r	.	.	.	.	16G/	.	.	.	.	.	16.f\ 16.d\	.	.	.	.	.	16.ff\ 16.dd\	.	.	.	.	.
16r	.	16ryy	.	.	.	.	.	.	16f\ 16B-\	.	16d/	16a-/ 16B-/	.	.	.	.	16r	.	.	.	.	.	.	.	.	.	.	.	.	.	.	.	.	.
.	.	.	.	.	.	.	.	.	.	.	.	.	.	.	.	.	.	.	.	.	.	.	32e-\JJk 32c\	.	.	.	.	.	32ee-\JJk 32cc\	.	.	.	.	.
*Xrep	*	*Xrep	*	*	*	*	*	*	*Xrep	*	*Xrep	*Xrep	*	*	*	*	*Xrep	*	*	*	*	*	*	*	*	*	*	*	*	*	*	*	*	*
*rep	*	*rep	*	*	*	*	*	*	*rep	*	*rep	*rep	*	*	*	*	*rep	*	*	*	*	*	*	*	*	*	*	*	*	*	*	*	*	*
16BB-/	.	16BB-/yy	.	.	.	.	.	.	16r	.	16r	16r	.	.	.	.	16G/	.	.	.	.	.	16.d\LL 16.B-\	.	.	.	.	.	16.dd\LL 16.b-\	.	.	.	.	.
16r	.	16ryy	.	.	.	.	.	.	16f\ 16B-\	.	16d/	16a-/ 16B-/	.	.	.	.	16r	.	.	.	.	.	.	.	.	.	.	.	.	.	.	.	.	.
.	.	.	.	.	.	.	.	.	.	.	.	.	.	.	.	.	.	.	.	.	.	.	32c\K 32A-\	.	.	.	.	.	32cc\K 32a-\	.	.	.	.	.
*Xrep	*	*Xrep	*	*	*	*	*	*	*Xrep	*	*Xrep	*Xrep	*	*	*	*	*Xrep	*	*	*	*	*	*	*	*	*	*	*	*	*	*	*	*	*
*rep	*	*rep	*	*	*	*	*	*	*rep	*	*rep	*rep	*	*	*	*	*rep	*	*	*	*	*	*	*	*	*	*	*	*	*	*	*	*	*
16BB-/	.	16BB-/yy	.	.	.	.	.	.	16r	.	16r	16r	.	.	.	.	16G/	.	.	.	.	.	16.B-\ 16.G\	.	.	.	.	.	16.b-\ 16.g\	.	.	.	.	.
16r	.	16ryy	.	.	.	.	.	.	16f\ 16B-\	.	16d/	16a-/ 16B-/	.	.	.	.	16r	.	.	.	.	.	.	.	.	.	.	.	.	.	.	.	.	.
.	.	.	.	.	.	.	.	.	.	.	.	.	.	.	.	.	.	.	.	.	.	.	32A-\JJk 32F\	.	.	.	.	.	32a-\JJk 32f\	.	.	.	.	.
*Xrep	*	*Xrep	*	*	*	*	*	*	*Xrep	*	*Xrep	*Xrep	*	*	*	*	*Xrep	*	*	*	*	*	*	*	*	*	*	*	*	*	*	*	*	*
=18	=18	=18	=18	=18	=18	=18	=18	=18	=18	=18	=18	=18	=18	=18	=18	=18	=18	=18	=18	=18	=18	=18	=18	=18	=18	=18	=18	=18	=18	=18	=18	=18	=18	=18
16E-\	.	16E-\yy	.	2ryy	.	2ryy	.	2ryy	16r	.	16r	16r	.	2r	2r	.	16G/	2r	.	2r	2r	2r	16.G/LL 16.E-/	4.ee-/	4.b-\	4.g/	4.e-\	.	16.g/LL 16.e-/	2ryy	2ryy	.	2ryy	.
16r	.	16ryy	.	.	.	.	.	.	16e-\ 16B-\	.	16e-/	16g/ 16B-/	.	.	.	.	16r	.	.	.	.	.	.	.	.	.	.	.	.	.	.	.	.	.
.	.	.	.	.	.	.	.	.	.	.	.	.	.	.	.	.	.	.	.	.	.	.	32A-/K 32F/	.	.	.	.	.	32a-/K 32f/	.	.	.	.	.
*rep	*	*rep	*	*	*	*	*	*	*rep	*	*rep	*rep	*	*	*	*	*rep	*	*	*	*	*	*	*	*	*	*	*	*	*	*	*	*	*
16E-\	.	16E-\yy	.	.	.	.	.	.	16r	.	16r	16r	.	.	.	.	16G/	.	.	.	.	.	16.B-/ 16.G/	.	.	.	.	.	16.b-/ 16.g/	.	.	.	.	.
16r	.	16ryy	.	.	.	.	.	.	16e-\ 16B-\	.	16e-/	16g/ 16B-/	.	.	.	.	16r	.	.	.	.	.	.	.	.	.	.	.	.	.	.	.	.	.
.	.	.	.	.	.	.	.	.	.	.	.	.	.	.	.	.	.	.	.	.	.	.	32c/JJk 32A-/	.	.	.	.	.	32cc/JJk 32a-/	.	.	.	.	.
*Xrep	*	*Xrep	*	*	*	*	*	*	*Xrep	*	*Xrep	*Xrep	*	*	*	*	*Xrep	*	*	*	*	*	*	*	*	*	*	*	*	*	*	*	*	*
*rep	*	*rep	*	*	*	*	*	*	*rep	*	*rep	*rep	*	*	*	*	*rep	*	*	*	*	*	*	*	*	*	*	*	*	*	*	*	*	*
16E-\	.	16E-\yy	.	.	.	.	.	.	16r	.	16r	16r	.	.	.	.	16G/	.	.	.	.	.	8B-/ 8G/	.	.	.	.	.	8b-/ 8g/	.	.	.	.	.
16r	.	16ryy	.	.	.	.	.	.	16e-\ 16B-\	.	16e-/	16g/ 16B-/	.	.	.	.	16r	.	.	.	.	.	.	.	.	.	.	.	.	.	.	.	.	.
*Xrep	*	*Xrep	*	*	*	*	*	*	*Xrep	*	*Xrep	*Xrep	*	*	*	*	*Xrep	*	*	*	*	*	*	*	*	*	*	*	*	*	*	*	*	*
*rep	*	*rep	*	*	*	*	*	*	*rep	*	*rep	*rep	*	*	*	*	*rep	*	*	*	*	*	*	*	*	*	*	*	*	*	*	*	*	*
16E-\	.	16E-\yy	.	.	.	.	.	.	16r	.	16r	16r	.	.	.	.	16G/	.	.	.	.	.	8B-/ 8G/	8r	8ryy	8r	8ryy	.	(8b-/ 8gt/	.	.	.	.	.
16r	.	16ryy	.	.	.	.	.	.	16e-\ 16B-\	.	16e-/	16g/ 16B-/	.	.	.	.	16r	.	.	.	.	.	.	.	.	.	.	.	.	.	.	.	.	.
.	.	.	.	.	.	.	.	.	.	.	.	.	.	.	.	.	.	.	.	.	.	.	(<32qqAn/LLL 32qqF#X/	.	.	.	.	.	32qqa/LLL 32qqf#X/	.	.	.	.	.
.	.	.	.	.	.	.	.	.	.	.	.	.	.	.	.	.	.	.	.	.	.	.	32qqB-/JJJ 32qqG/	.	.	.	.	.	32qqb-/JJJ 32qqg/)	.	.	.	.	.
*Xrep	*	*Xrep	*	*	*	*	*	*	*Xrep	*	*Xrep	*Xrep	*	*	*	*	*Xrep	*	*	*	*	*	*	*	*	*	*	*	*	*	*	*	*	*
=19	=19	=19	=19	=19	=19	=19	=19	=19	=19	=19	=19	=19	=19	=19	=19	=19	=19	=19	=19	=19	=19	=19	=19	=19	=19	=19	=19	=19	=19	=19	=19	=19	=19	=19
*	*	*	*	*	*	*	*	*	*	*	*	*	*	*	*	*	*	*	*	*	*	*	*Xtuplet	*	*	*	*	*	*Xtuplet	*	*	*	*	*
!	!	!	!	!	!	!	!	!	!	!	!	!	!	!	!	!	!	!	!	!	!	!	!LO:TX:t=P:problem:brak oznaczenia trioli:global	!	!	!	!	!	!LO:TX:t=P:problem:brak oznaczenia trioli:global	!	!	!	!	!
16BB-/	.	16BB-/yy	.	2ryy	.	2ryy	.	2ryy	16r	.	16r	16r	.	2r	2r	.	16G/	2r	.	2r	2r	2r	24a-\LL 24f'\)	(2dd/	(2b-\	(>2a-/	(>2f\	.	24aa-\LL 24ff'\	2ryy	2ryy	.	2ryy	.
.	.	.	.	.	.	.	.	.	.	.	.	.	.	.	.	.	.	.	.	.	.	.	(24a-\ 24f\	.	.	.	.	.	(24aa-\ 24ff\	.	.	.	.	.
16r	.	16ryy	.	.	.	.	.	.	16f\ 16B-\	.	16d/	16a-/ 16B-/	.	.	.	.	16r	.	.	.	.	.	.	.	.	.	.	.	.	.	.	.	.	.
.	.	.	.	.	.	.	.	.	.	.	.	.	.	.	.	.	.	.	.	.	.	.	24g\JJ 24e-\)	.	.	.	.	.	24gg\JJ 24ee-\)	.	.	.	.	.
*rep	*	*rep	*	*	*	*	*	*	*rep	*	*rep	*rep	*	*	*	*	*rep	*	*	*	*	*	*	*	*	*	*	*	*	*	*	*	*	*
16BB-/	.	16BB-/yy	.	.	.	.	.	.	16r	.	16r	16r	.	.	.	.	16G/	.	.	.	.	.	24f\LL 24d'\	.	.	.	.	.	24ff\LL 24dd'\	.	.	.	.	.
.	.	.	.	.	.	.	.	.	.	.	.	.	.	.	.	.	.	.	.	.	.	.	(24f\ 24d\	.	.	.	.	.	(24ff\ 24dd\	.	.	.	.	.
16r	.	16ryy	.	.	.	.	.	.	16f\ 16B-\	.	16d/	16a-/ 16B-/	.	.	.	.	16r	.	.	.	.	.	.	.	.	.	.	.	.	.	.	.	.	.
.	.	.	.	.	.	.	.	.	.	.	.	.	.	.	.	.	.	.	.	.	.	.	24e-\JJ 24c\)	.	.	.	.	.	24ee-\JJ 24cc\)	.	.	.	.	.
*Xrep	*	*Xrep	*	*	*	*	*	*	*Xrep	*	*Xrep	*Xrep	*	*	*	*	*Xrep	*	*	*	*	*	*	*	*	*	*	*	*	*	*	*	*	*
*rep	*	*rep	*	*	*	*	*	*	*rep	*	*rep	*rep	*	*	*	*	*rep	*	*	*	*	*	*	*	*	*	*	*	*	*	*	*	*	*
16BB-/	.	16BB-/yy	.	.	.	.	.	.	16r	.	16r	16r	.	.	.	.	16G/	.	.	.	.	.	24d\LL 24B-'\	.	.	.	.	.	24dd\LL 24b-'\	.	.	.	.	.
.	.	.	.	.	.	.	.	.	.	.	.	.	.	.	.	.	.	.	.	.	.	.	(24d\ 24B-\	.	.	.	.	.	(24dd\ 24b-\	.	.	.	.	.
16r	.	16ryy	.	.	.	.	.	.	16f\ 16B-\	.	16d/	16a-/ 16B-/	.	.	.	.	16r	.	.	.	.	.	.	.	.	.	.	.	.	.	.	.	.	.
.	.	.	.	.	.	.	.	.	.	.	.	.	.	.	.	.	.	.	.	.	.	.	24c\JJ 24A-\)	.	.	.	.	.	24cc\JJ 24a-\)	.	.	.	.	.
*Xrep	*	*Xrep	*	*	*	*	*	*	*Xrep	*	*Xrep	*Xrep	*	*	*	*	*Xrep	*	*	*	*	*	*	*	*	*	*	*	*	*	*	*	*	*
*rep	*	*rep	*	*	*	*	*	*	*rep	*	*rep	*rep	*	*	*	*	*rep	*	*	*	*	*	*	*	*	*	*	*	*	*	*	*	*	*
16BB-/	.	16BB-/yy	.	.	.	.	.	.	16r	.	16r	16r	.	.	.	.	16G/	.	.	.	.	.	24B-/LL 24G'/	.	.	.	.	.	24b-/LL 24g'/	.	.	.	.	.
.	.	.	.	.	.	.	.	.	.	.	.	.	.	.	.	.	.	.	.	.	.	.	(24B-/ 24G/	.	.	.	.	.	(24b-/ 24g/	.	.	.	.	.
16r	.	16ryy	.	.	.	.	.	.	16f\ 16B-\	.	16d/	16a-/ 16B-/	.	.	.	.	16r	.	.	.	.	.	.	.	.	.	.	.	.	.	.	.	.	.
.	.	.	.	.	.	.	.	.	.	.	.	.	.	.	.	.	.	.	.	.	.	.	24A-/JJ 24F/)	.	.	.	.	.	24a-/JJ 24f/)	.	.	.	.	.
*Xrep	*	*Xrep	*	*	*	*	*	*	*Xrep	*	*Xrep	*Xrep	*	*	*	*	*Xrep	*	*	*	*	*	*	*	*	*	*	*	*	*	*	*	*	*
*	*	*	*	*	*	*	*	*	*	*	*	*	*	*	*	*	*	*	*	*	*	*	*	*	*	*v	*v	*	*	*	*	*	*	*
!!LO:PB:g=original
=20	=20	=20	=20	=20	=20	=20	=20	=20	=20	=20	=20	=20	=20	=20	=20	=20	=20	=20	=20	=20	=20	=20	=20	=20	=20	=20	=20	=20	=20	=20	=20	=20	=20
16E-\	.	16E-\yy	.	2ryy	.	2ryy	.	2ryy	16r	.	16r	16r	.	2r	4r	.	16G/	2r	.	2r	2r	4r	16.G/LL 16.E-/	4ee-/)	4.b-\)	16g\ 16e-\))	.	16.g/LL 16.e-/	4r	4r	.	4r	.
16r	.	16ryy	.	.	.	.	.	.	16e-\ 16B-\	.	16e-/	16g/ 16B-/	.	.	.	.	16r	.	.	.	.	.	.	.	.	16r	.	.	.	.	.	.	.
.	.	.	.	.	.	.	.	.	.	.	.	.	.	.	.	.	.	.	.	.	.	.	32c/K 32A-/	.	.	.	.	32cc/K 32a-/	.	.	.	.	.
16E-\	.	16E-\yy	.	.	.	.	.	.	16r	.	16r	16r	.	.	.	.	16G/	.	.	.	.	.	16.B-/ 16.G/	.	.	8e-/L 8G/	.	16.b-/ 16.g/	.	.	.	.	.
16r	.	16ryy	.	.	.	.	.	.	16e-\ 16B-\	.	16e-/	16g/ 16B-/	.	.	.	.	16r	.	.	.	.	.	.	.	.	.	.	.	.	.	.	.	.
.	.	.	.	.	.	.	.	.	.	.	.	.	.	.	.	.	.	.	.	.	.	.	32G/JJk 32E-/	.	.	.	.	32g/JJk 32e-/	.	.	.	.	.
8BB-/	.	8BB-/yy	.	.	.	.	.	.	8f\ 8B-\	.	8d/	8f/ 8B-/	.	.	8r	.	8G/	.	.	.	.	16.r	16.F/ 16.D/	8dd/	.	16.f/Jk 16.B-/	.	16.f/ 16.d/	16.r	16.r	.	16.r	.
*	*	*	*	*	*	*	*	*	*	*	*	*	*	*	*	*	*	*	*	*	*	*	*clefF4	*	*	*	*	*	*	*	*	*	*
!	!	!	!	!	!	!	!	!	!	!	!	!	!	!	!	!	!	!	!	!	!	!	!	!	!	!	!	!	!	!LO:TX:a:t=Col Fl	!	!	!
.	.	.	.	.	.	.	.	.	.	.	.	.	.	.	.	.	.	.	.	.	.	32B-/	32B-\ 32BB-\	.	.	32B-/	.	32b-'\	32bb-\ 32b-\	32bb-'\yy	.	32bb-'\	.
8r	.	8ryy	.	.	.	.	.	.	8r	.	8r	8r	.	.	16r	.	8r	.	.	.	.	32c/LLL	32An/LLL 32AAn/	8r	8r	32c/LLL	.	32cc'\LLL	32ccc\LLL 32cc\	32ccc'\LLLyy	<	32ccc'\LLL	<
.	.	.	.	.	.	.	.	.	.	.	.	.	.	.	.	.	.	.	.	.	.	32d/ 32B-/	32A-X/ 32AA-X/	.	.	32d/ 32B-/	.	32dd\ 32b-'\	32bb-\ 32b-\	32ddd'\yy	.	32ddd'\	.
*	*	*	*	*	*	*	*	*	*	*	*	*	*	*	*Xtuplet	*	*	*	*	*	*	*	*	*	*	*	*	*	*	*	*	*	*
.	.	.	.	.	.	.	.	.	.	.	.	.	.	.	48BB-'/LLL	<	.	.	.	.	.	32e-/ 32B-/	32G/ 32GG/	.	.	32e-/ 32B-/	.	32ee-\ 32b-'\	32bb-\ 32b-\	32eee-'\yy	.	32eee-'\	.
.	.	.	.	.	.	.	.	.	.	.	.	.	.	.	48BB-'/	.	.	.	.	.	.	.	.	.	.	.	.	.	.	.	.	.	.
.	.	.	.	.	.	.	.	.	.	.	.	.	.	.	.	.	.	.	.	.	.	32f/JJJ 32B-/	32D/JJJ 32DD/	.	.	32f/JJJ 32B-/	.	32ff\JJJ 32b-'\	32bb-\JJJ 32b-\	32fff'\JJJyy	[	32fff'\JJJ	[
.	.	.	.	.	.	.	.	.	.	.	.	.	.	.	48BB-'/JJJ	.	.	.	.	.	.	.	.	.	.	.	.	.	.	.	.	.	.
*	*	*	*	*	*	*	*	*	*	*	*	*	*	*	*	*	*	*	*	*	*	*	*	*v	*v	*	*	*	*	*	*	*	*
=21	=21	=21	=21	=21	=21	=21	=21	=21	=21	=21	=21	=21	=21	=21	=21	=21	=21	=21	=21	=21	=21	=21	=21	=21	=21	=21	=21	=21	=21	=21	=21	=21
.	.	.	.	.	.	.	.	.	.	.	.	.	.	16qqC/LL	[/	.	.	.	.	.	.	.	.	.	.	.	.	.	.	.	.	.
.	.	.	.	.	.	.	.	.	.	.	.	.	.	16qqC/JJ	.	.	.	.	.	.	.	.	.	.	.	.	.	.	.	.	.	.
*	*	*	*	*	*	*	*	*	*	*	*	*	*	*	*	*	*	*	*	*	*	*	*	*	*^	*	*	*	*	*	*	*
!	!LO:DY:rj	!	!LO:DY:rj	!	!	!	!	!	!	!	!	!	!	!	!	!LO:DY:rj	!	!	!LO:DY:rj	!	!	!	!	!	!	!	!	!	!	!	!	!	!
4E-\	f	4E-\yy	f	2ryy	.	2ryy	.	2ryy	4g\ 4B-\ 4E-\	.	4ee-/ 4g/ 4B-/	4gg\ 4b-\ 4e-\	f	4C/	4E-\	[ f	4G/	4C\	f	4E-\	4g\ 4e-\	4g/ 4e-/	4E-/ 4EE-/	4b-/ 4B-/	4g/	4e-\	.	4gg\	4eee-\ 4ee-\	4ggg\yy	.	4ggg\	.
(16BBn/LL	.	(16BBn/LLyy	.	.	.	.	.	.	(16Bn/LL	.	(16dd\LL	(16ff\LL	.	4r	4r	.	4r	4r	.	(16BBn/LL	16f\LL 16d\	(16f/LL 16d/	(16BBn/LL	4r	4r	4ryy	.	(16ff\LL	(16ddd\LL 16dd\	(16fff\LLyy	.	(16fff\LL	.
16C/	.	16C/yy	.	.	.	.	.	.	16c/	.	16cc\	16ee-\	.	.	.	.	.	.	.	16C/	16e-\ 16c\	16e-/ 16c/	16C/	.	.	.	.	16ee-\	16ccc\ 16cc\	16eee-\yy	.	16eee-\	.
16GG/	.	16GG/yy	.	.	.	.	.	.	16G/	.	16b-\	16dd\	.	.	.	.	.	.	.	16GG/	16d\ 16B-\	16d/ 16B-/	16GG/	.	.	.	.	16dd\	16bb-\ 16b-\	16ddd\yy	.	16ddd\	.
16AA-/JJ)	.	16AA-/JJ)yy	.	.	.	.	.	.	16A-/JJ)	.	16a-\JJ)	16cc\JJ)	.	.	.	.	.	.	.	16AA-/JJ)	16c\JJ 16A-\	16c/JJ 16A-/)	16AA-/JJ)	.	.	.	.	16cc\JJ)	16aa-\JJ 16a-\)	16ccc\JJ)yy	.	16ccc\JJ)	.
*	*	*	*	*	*	*	*	*	*	*	*	*	*	*	*	*	*	*	*	*	*	*	*	*	*v	*v	*	*	*	*	*	*	*
=22	=22	=22	=22	=22	=22	=22	=22	=22	=22	=22	=22	=22	=22	=22	=22	=22	=22	=22	=22	=22	=22	=22	=22	=22	=22	=22	=22	=22	=22	=22	=22	=22
.	.	.	.	.	.	.	.	.	.	.	.	.	.	16qqC/LL	.	.	.	.	.	.	.	.	.	.	.	.	.	.	.	.	.	.
.	.	.	.	.	.	.	.	.	.	.	.	.	.	16qqC/JJ	.	.	.	.	.	.	.	.	.	.	.	.	.	.	.	.	.	.
8BB-'/L	.	8BB-'/Lyy	.	2ryy	.	2ryy	.	2ryy	8B-'/L	.	8d'/L	8b-'/L	.	4C/	8BB-/L	.	8G/L	4C\	.	8BB-'/L	8B-/L 8D'/	8B-/L	8BB-'/L	4r	4r	.	8b-'/L	8bb-\L 8dd'\	8bb-'\L	.	8ddd'\L	.
*	*	*	*	*	*	*	*	*	*	*	*	*	*	*	*	*	*tremolo	*	*	*	*	*	*	*	*	*	*	*	*	*	*	*
(16C/L	.	(16C/Lyy	.	.	.	.	.	.	(16c/L	.	(16e-/L	(16a-/L	.	.	16E-/L	.	32G/LL	.	.	(<16C/L	(16A-/L 16E-/	(16c/L	(<16C/L	.	.	.	(16a-/L	(16aa-\L 16ee-\	(16aa-\L	.	(16eee-\L	.
.	.	.	.	.	.	.	.	.	.	.	.	.	.	.	.	.	32G/	.	.	.	.	.	.	.	.	.	.	.	.	.	.	.
16D/JJ)	.	16D/JJ)yy	.	.	.	.	.	.	16d/JJ 16B-/	.	16B-/JJ	16f/JJ	.	.	16BB-/JJ	.	32G/	.	.	16D/JJ	16F/JJ	16d/JJ	16D/JJ	.	.	.	16f/JJ)	16ff\JJ 16b-\)	16ff\JJ)	.	16bb-\JJ)	.
.	.	.	.	.	.	.	.	.	.	.	.	.	.	.	.	.	32G/JJJ	.	.	.	.	.	.	.	.	.	.	.	.	.	.	.
8E-\	.	8E-\yy	.	.	.	.	.	.	8e-/ 8B-/)	.	8e-/)	8g/)	.	4r	8E-\	.	8G/	4r	.	8E-\)	8G/ 8E-/)	8e-/)	8E-\)	8r	8r	.	8e-/	8gg\ 8b-\	8gg\	.	8eee-\	.
16.C/LL	.	16.C/LLyy	.	.	.	.	.	.	16.c/LL	.	16.g/LL	16.ee-\LL	.	.	16.E-\LL	.	8r	.	.	16.C/LL	16.e-\LL 16.G\	16.ee-\LL 16.g\	16.c\LL 16.C\	16.ee-\LL 16.cc\	16.g\LL 16.e-\	.	16.ee-\LL 16.g\	16.ccc\LL 16.gg\	16.eee-\LL	.	16.eee-\LL	.
32C/JJk	.	32C/JJkyy	.	.	.	.	.	.	32c/JJk	.	32g/JJk	32ee-\JJk	.	.	32E-\JJk	.	.	.	.	32C/JJk	32e-\JJk 32G\	32ee-\JJk 32g\	32c\JJk 32C\	32ee-\JJk 32cc\	32g\JJk 32e-\	.	32ee-\JJk 32g\	32ccc\JJk 32gg\	32eee-\JJk	.	32eee-\JJk	.
=23	=23	=23	=23	=23	=23	=23	=23	=23	=23	=23	=23	=23	=23	=23	=23	=23	=23	=23	=23	=23	=23	=23	=23	=23	=23	=23	=23	=23	=23	=23	=23	=23
!	!	!	!	!	!	!	!	!	!	!	!	!	!	!	!	!	!	!	!	!	!	!	!	!	!	!	!	!	!LO:TX:a:t=Col Fl	!	!	!
8AA-/	.	8AA-/yy	.	2ryy	.	2ryy	.	2ryy	8A-/	.	8a-/L	8cc\L	.	8C/	8E-\	.	8G/	8C\	.	8AA-/L	8c\L 8A-\	8cc\L 8a-\	8A-\L 8AA-\	8cc\L	8f\L	.	8ff\L 8a-\	8ccc\L 8aa-\	8ccc\Lyy	.	8ccc\L	.
16.A-\LL	.	16.A-\LLyy	.	.	.	.	.	.	16.f\LL 16.A-\	.	16.a-/L 16.c/	16.ff\L	.	8r	8r	.	8r	8r	.	16.AA-/L	16.f\L 16.A-\	16.ff\L 16.a-\	16.A-\L 16.AA-\	16.cc\L	16.f\L	.	16.ff\L 16.a-\	16.ccc\L 16.aa-\	16.fff\Lyy	.	16.fff\L	.
32A-\JJk	.	32A-\JJkyy	.	.	.	.	.	.	32f\JJk 32A-\	.	32a-/JJk 32c/	32ff\JJk	.	.	.	.	.	.	.	32AA-/JJk	32f\JJk 32A-\	32ff\JJk 32a-\	32A-\JJk 32AA-\	32cc\JJk	32f\JJk	.	32ff\JJk 32a-\	32ccc\JJk 32aa-\	32fff\JJkyy	.	32fff\JJk	.
!LO:TX:t=P:problem:mixedbeam	!	!LO:TX:t=P:problem:mixedbeam	!	!	!	!	!	!	!	!	!	!	!	!	!	!	!	!	!	!	!	!	!	!	!	!	!	!	!	!	!	!
*	*	*	*	*	*	*	*	*	*	*	*	*	*	*	*	*	*tremolo	*Xtremolo	*	*	*	*	*	*	*	*	*	*	*	*	*	*
8B-\L	.	8B-\Lyy	.	.	.	.	.	.	8f\L 8B-\	.	8a-/L 8B-/	8ee-\L	.	8CT/L	8r	.	8G/L	8C\L	.	8BB-/L	8e-\L 8G\	8ff\L 8b-\	8B-\L 8BB-\	8b-\L	8g\L 8e-\	.	8ee-\L 8g\	8bb-\L 8gg\	8eee-\Lyy	.	8eee-\L	.
8BB-/J	.	8BB-/Jyy	.	.	.	.	.	.	8f\J 8B-\	.	8a-/J 8B-/	8dd\J	.	8C/J	8BB-/	.	32G/LL	8C\J	.	8BB-/J	8d\J 8A-\	8dd\J 8f\	8B-\J 8BB-\	8b-\J	8f\J 8B-\	.	8dd\J 8a-\	8aa-\J 8ff\	8ddd\Jyy	.	8ddd\J	.
.	.	.	.	.	.	.	.	.	.	.	.	.	.	.	.	.	32G/	.	.	.	.	.	.	.	.	.	.	.	.	.	.	.
.	.	.	.	.	.	.	.	.	.	.	.	.	.	.	.	.	32G/	.	.	.	.	.	.	.	.	.	.	.	.	.	.	.
.	.	.	.	.	.	.	.	.	.	.	.	.	.	.	.	.	32G/JJJ	.	.	.	.	.	.	.	.	.	.	.	.	.	.	.
!!LO:PB:g=original
=24	=24	=24	=24	=24	=24	=24	=24	=24	=24	=24	=24	=24	=24	=24	=24	=24	=24	=24	=24	=24	=24	=24	=24	=24	=24	=24	=24	=24	=24	=24	=24	=24
*	*	*	*	*	*	*	*	*	*	*	*	*	*	*	*	*	*	*	*	*^	*	*	*	*	*	*	*	*	*	*	*	*
8E-\	.	8E-\yy	.	2ryy	.	2ryy	.	2ryy	8e-\	.	8g/ 8B-/	8ee-\	.	16C/LL	16E-\LL	.	16G/LL	4C\	.	16E-\LL	4ryy	16e-\LL 16G\	16ee-/LL 16g/	16e-\LL 16E-\	16ee-\LL 16b-\	16e-\LL 16G\	.	16ee-\LL 16g\	16gg\LL 16ee-\	16eee-\LLyy	.	16eee-\LL	.
.	.	.	.	.	.	.	.	.	.	.	.	.	.	32C/L	32E-\L	.	32G/L	.	.	32E-\L	.	32e-\L 32G\	32e-/L 32G/	32e-\L 32E-\	32b-\L	32e-\L 32G\	.	32b-\L 32g\	32ee-\L 32b-\	32ee-\Lyy	.	32ee-\L	.
.	.	.	.	.	.	.	.	.	.	.	.	.	.	32C/JJJ	32E-\JJJ	.	32G/JJJ	.	.	32E-\JJJ	.	32e-\JJJ 32G\	32e-/JJJ 32G/	32e-\JJJ 32E-\	32b-\JJJ	32e-\JJJ 32G\	.	32b-\JJJ 32g\	32ee-\JJJ 32b-\	32ee-\JJJyy	.	32ee-\JJJ	.
*	*	*	*	*	*	*	*	*	*	*	*	*	*	*rep	*rep	*	*rep	*	*	*	*	*	*	*	*	*	*	*	*	*	*	*	*
8r	.	8ryy	.	.	.	.	.	.	8r	.	8r	8r	.	16C/LL	16E-\LL	.	16G/LL	.	.	16E-/LL	.	16e-\LL 16G\	16e-/LL 16G/	16e-\LL 16E-\	16b-\LL	16e-\LL 16G\	.	16b-\LL 16g\	16ee-\LL 16b-\	16ee-\LLyy	.	16ee-\LL	.
.	.	.	.	.	.	.	.	.	.	.	.	.	.	32C/L	32E-\L	.	32G/L	.	.	32BB-/L	.	32e-\L 32G\	32g/L 32B-/	32B-\L 32BB-\	32b-\L	32g\L 32e-\	.	32ee-\L 32b-\	32gg\L 32ee-\	32gg\Lyy	.	32gg\L	.
.	.	.	.	.	.	.	.	.	.	.	.	.	.	32C/JJJ	32E-\JJJ	.	32G/JJJ	.	.	32BB-/JJJ	.	32e-\JJJ 32G\	32g/JJJ 32B-/	32B-\JJJ 32BB-\	32b-\JJJ	32g\JJJ 32e-\	.	32ee-\JJJ 32b-\	32gg\JJJ 32ee-\	32gg\JJJyy	.	32gg\JJJ	.
*	*	*	*	*	*	*	*	*	*	*	*	*	*	*Xrep	*Xrep	*	*Xrep	*	*	*	*	*	*	*	*	*	*	*	*	*	*	*	*
*	*	*	*	*	*	*	*	*	*	*	*	*	*	*rep	*rep	*	*rep	*	*	*	*	*	*	*	*	*	*	*	*	*	*	*	*
4r	.	4ryy	.	.	.	.	.	.	4r	.	4r	4r	.	16C/LL	16E-\LL	.	16G/LL	4r	.	16BB-\LL	4BB-/	16e-\LL 16G\	16g/LL 16B-/	16B-\LL 16BB-\	16b-\LL	16g\LL 16e-\	.	16ee-\LL 16b-\	16gg\LL 16ee-\	16gg\LLyy	.	16gg\LL	.
.	.	.	.	.	.	.	.	.	.	.	.	.	.	32C/L	32E-\L	.	32G/L	.	.	32G\L	.	32g\L 32B-\	32b-/L 32e-/	32G\L 32GG\	32b-\L	32g\L 32e-\	.	32gg\L 32ee-\	32bb-\L 32gg\	32bb-\Lyy	.	32bb-\L	.
.	.	.	.	.	.	.	.	.	.	.	.	.	.	32C/JJJ	32E-\JJJ	.	32G/JJJ	.	.	32G\JJJ	.	32g\JJJ 32B-\	32b-/JJJ 32e-/	32G\JJJ 32GG\	32b-\JJJ	32g\JJJ 32e-\	.	32gg\JJJ 32ee-\	32bb-\JJJ 32gg\	32bb-\JJJyy	.	32bb-\JJJ	.
*	*	*	*	*	*	*	*	*	*	*	*	*	*	*Xrep	*Xrep	*	*Xrep	*	*	*	*	*	*	*	*	*	*	*	*	*	*	*	*
*	*	*	*	*	*	*	*	*	*	*	*	*	*	*rep	*rep	*	*rep	*	*	*	*	*	*	*	*	*	*	*	*	*	*	*	*
.	.	.	.	.	.	.	.	.	.	.	.	.	.	16C/LL	16E-\LL	.	16G/LL	.	.	16G\LL	.	16g\LL 16B-\	16b-/LL 16e-/	16G/LL 16GG/	16b-\LL	16g\LL 16e-\	.	16gg\LL 16ee-\	16bb-\LL 16gg\	16bb-\LLyy	.	16bb-\LL	.
.	.	.	.	.	.	.	.	.	.	.	.	.	.	32C/L	32E-\L	.	32G/L	.	.	32E-\L	.	32e-\L 32G\	32ee-/L 32g/	32E-/L 32EE-/	32b-\L	32e-\L 32B-\	.	32gg\L 32ee-\	32bb-\L 32gg\	32eee-\Lyy	.	32eee-\L	.
.	.	.	.	.	.	.	.	.	.	.	.	.	.	32C/JJJ	32E-\JJJ	.	32G/JJJ	.	.	32E-\JJJ	.	32e-\JJJ 32G\	32ee-/JJJ 32g/	32E-/JJJ 32EE-/	32b-\JJJ	32e-\JJJ 32B-\	.	32gg\JJJ 32ee-\	32bb-\JJJ 32gg\	32eee-\JJJyy	.	32eee-\JJJ	.
*	*	*	*	*	*	*	*	*	*	*	*	*	*	*Xrep	*Xrep	*	*Xrep	*	*	*	*	*	*	*	*	*	*	*	*	*	*	*	*
*	*	*	*	*	*	*	*	*	*	*	*	*	*	*	*	*	*	*	*	*v	*v	*	*	*	*	*	*	*	*	*	*	*	*
=25	=25	=25	=25	=25	=25	=25	=25	=25	=25	=25	=25	=25	=25	=25	=25	=25	=25	=25	=25	=25	=25	=25	=25	=25	=25	=25	=25	=25	=25	=25	=25	=25
*	*	*	*	*	*	*	*	*	*	*	*	*	*	*	*	*	*	*	*	*	*	*	*	*^	*	*	*	*	*	*	*	*
*	*	*	*	*	*	*	*	*	*	*	*	*	*	*	*2\right	*	*	*	*	*	*	*	*	*	*	*	*	*	*	*	*	*	*
4r	.	4ryy	.	2ryy	.	2ryy	.	2ryy	4r	.	4r	4r	.	2CTT/	2E-TT\	.	8G/	4r	.	8E-\	8e-\ 8G\	8ee-\ 8g\	8E-/ 8EE-/	8b-/	8b-\	8e-/ 8B-/	.	8gg\ 8ee-\	8bb-\ 8gg\	8eee-\yy	.	8eee-\	.
.	.	.	.	.	.	.	.	.	.	.	.	.	.	.	.	.	8r	.	.	8r	8r	8r	8r	8r	8r	8r	.	8r	8r	8ryy	.	8r	.
8e-\	.	8e-\yy	.	.	.	.	.	.	8g\ 8B-\ 8E-\	.	8ee-\ 8g\ 8B-\	8gg\ 8b-\ 8e-\ 8G\	.	.	.	.	8G/	8C\	.	8E-\	8g\ 8B-\	8gg\ 8b-\	8e-\ 8E-\	8b-/	8b-\	8b-\ 8g\	.	8bb-\ 8ee-\	8eee-\ 8gg\	8ggg\yy	.	8ggg\	.
16r	.	16ryy	.	.	.	.	.	.	16r	.	16r	16r	.	.	.	.	8r	8r	.	16r	16r	16r	16r	16r	16r	16r	.	16r	16r	16ryy	.	16r	.
16E-\	.	16E-\yy	.	.	.	.	.	.	16B-/ 16E-/	.	16e-/ 16G/	16e-/ 16G/	.	.	.	.	.	.	.	16E-\	16e-\ 16G\	16e-/ 16G/	16E-/ 16EE-/	16b-/	16B-/	16e-/ 16G/	.	16b-/ 16e-/	16ee-\ 16g\	16ee-\yy	.	16ee-\	.
*	*	*	*	*	*	*	*	*	*	*	*	*	*	*	*	*	*	*	*	*	*	*	*	*v	*v	*	*	*	*	*	*	*	*
=26	=26	=26	=26	=26	=26	=26	=26	=26	=26	=26	=26	=26	=26	=26	=26	=26	=26	=26	=26	=26	=26	=26	=26	=26	=26	=26	=26	=26	=26	=26	=26	=26
*2\right	*	*2\right	*	*	*	*	*	*	*	*	*	*	*	*	*	*	*	*	*	*2\right	*2\right	*	*	*	*	*	*	*2\right	*	*	*2\right	*
2E-\	.	2E-\yy	.	2ryy	.	2ryy	.	2ryy	2B-/ 2E-/	.	2e-/ 2G/	2e-/ 2G/	.	4C/	4E-\	.	4G/	4C\	.	2E-\	2e-\ 2G\	2e-/ 2G/	2E-/ 2EE-/	2b-/ 2B-/	2e-/ 2G/	.	2b-/ 2e-/	2ee-\ 2g\	2ee-\yy	.	2ee-\	.
.	.	.	.	.	.	.	.	.	.	.	.	.	.	4r	4r	.	4r	4r	.	.	.	.	.	.	.	.	.	.	.	.	.	.
*	*	*	*	*	*	*	*	*	*	*	*	*	*	*	*	*	*v	*v	*	*	*	*	*	*	*	*	*	*	*	*	*	*
==	==	==	==	==	==	==	==	==	==	==	==	==	==	==	==	==	==	==	==	==	==	==	==	==	==	==	==	==	==	==	==
*-	*-	*-	*-	*-	*-	*-	*-	*-	*-	*-	*-	*-	*-	*-	*-	*-	*-	*-	*-	*-	*-	*-	*-	*-	*-	*-	*-	*-	*-	*-	*-
!!!system-decoration: (s1,s2,s3,s4,s5,s6,s7,s8,s9,s10,s11,s12,s13,s14,s15,s16,{s17,s18,s19},s20,s21)
!!!RDF**kern: > = above
!!!RDF**kern: < = below
!!!EED: Leszek Kubiak
!!!EST: 2021-05-18
!!!AIN: 1 cbass 1 cello 1 clars 2 cor 1 drumS 2 empty 1 fagot 1 flt 1 oboe 1 picco 2 tenor 1 timpa 1 tromp 2 tromt 1 viola 2 violn
!!!ENC: Anastazja Marusiak
!!!END: 2021-04-23
